X:51
T: Reiter und Hirtenmaedchen
N: Q0148B
O: Mitteleuropa, Luxemburg, Heffingen
N: Fuenfte bis letzte Zeile = Refrain.
R: Ballade, Verfuehrung, Schwangerschaft
M: 6/8
L: 1/16
K: F
C2 | F2F2F2F2A2A2 | c2c2c2A2G2F2 | G6c4B2 | A4z6
C2 | F2F2F2F2A2A2 | c2c2c2A2G2F2 | G6c4B2 | A4z6
CC | B2A2G2G2A2B2 | d2c2c2A2A2
c2 | c4A2A2G2A2 | d2c2B2A4
c2 | A2c2c2c2c2c2 | c4f2d4
d2 | c2d2c2c2B2G2 | A6-A2z2
c2 | A2c2c2c2c2c2 | c4f2d4
d2 | c2d2c2c2B2G2 | F6-F2z2

